dist/assets/img/icon-inclusion.svg

<svg width="58" height="58" viewBox="0 0 58 58" fill="none" xmlns="http://www.w3.org/2000/svg">
<path d="M56.1301 26.687L49.2493 14.1931H54.6545V12.0417H34.5402C34.0432 9.73663 31.9619 8 29.4922 8C27.0225 8 24.9412 9.73649 24.4442 12.0417H4.3299V14.1931H9.73507L2.85427 26.687C2.35724 26.7946 2 27.2095 2 27.732C2 32.9571 6.28699 37.1984 11.5679 37.1984C16.8488 37.1984 21.1358 32.9416 21.1358 27.732C21.1358 27.2095 20.763 26.8099 20.2815 26.7024L13.4007 14.1932H24.4443C24.8636 16.0373 26.4324 17.6355 28.4051 18.0657V40.7641C24.3511 41.2866 21.2292 44.7598 21.2292 48.8935C21.2292 49.4929 21.7107 50 22.3164 50H36.6836C37.2893 50 37.7708 49.4929 37.7708 48.8935C37.7708 44.7443 34.6333 41.2865 30.5949 40.7641V18.0812C32.5676 17.6663 34.1364 16.0526 34.5557 14.2086H45.5993L38.7185 26.7025C38.2214 26.8101 37.8642 27.225 37.8642 27.7475C37.8642 32.9726 42.1512 37.2139 47.4321 37.2139C52.713 37.2139 57 32.9724 57 27.7628C56.9845 27.225 56.6272 26.7947 56.1302 26.6871L56.1301 26.687ZM11.583 35.047C7.87077 35.047 4.79541 32.3423 4.26727 28.8078H18.8985C18.3549 32.327 15.2796 35.047 11.5828 35.047H11.583ZM17.796 26.6409H5.35464L11.5676 15.315L17.796 26.6409ZM35.5032 47.8486H23.5122C24.0247 44.9287 26.5255 42.9002 29.5077 42.9002C32.4899 42.9002 34.975 44.9287 35.5032 47.8486ZM29.4922 16.0371C27.8457 16.0371 26.4945 14.7155 26.4945 13.0712C26.4945 11.4422 27.8303 10.1053 29.4922 10.1053C31.1541 10.1053 32.4899 11.4269 32.4899 13.0712C32.4899 14.7002 31.1541 16.0371 29.4922 16.0371ZM47.4323 15.3148L53.6452 26.6407H41.2039L47.4323 15.3148ZM47.4323 35.0472C43.72 35.0472 40.6446 32.3425 40.1165 28.808H54.7478C54.2197 32.3272 51.1288 35.0472 47.432 35.0472H47.4323Z" fill="black"/>
</svg>

<svg width="58" height="58" fill="none" xmlns="http://www.w3.org/2000/svg"><path d="M56.13 26.687l-6.88-12.494h5.404v-2.151H34.54C34.043 9.737 31.962 8 29.492 8s-4.55 1.736-5.048 4.042H4.33v2.151h5.405l-6.88 12.494A1.06 1.06 0 002 27.732c0 5.225 4.287 9.466 9.568 9.466 5.28 0 9.568-4.256 9.568-9.466 0-.523-.373-.922-.854-1.03L13.4 14.193h11.043c.42 1.844 1.988 3.443 3.961 3.873v22.698c-4.054.523-7.176 3.996-7.176 8.13 0 .599.482 1.106 1.087 1.106h14.368c.605 0 1.087-.507 1.087-1.106 0-4.15-3.138-7.608-7.176-8.13V18.081c1.973-.415 3.541-2.028 3.96-3.872H45.6l-6.88 12.494a1.06 1.06 0 00-.855 1.044c0 5.226 4.287 9.467 9.568 9.467S57 32.972 57 27.763a1.11 1.11 0 00-.87-1.076zm-44.547 8.36c-3.712 0-6.788-2.705-7.316-6.24h14.631c-.543 3.52-3.618 6.24-7.315 6.24zm6.213-8.406H5.355l6.213-11.326 6.228 11.326zm17.707 21.208h-11.99c.512-2.92 3.012-4.949 5.995-4.949 2.982 0 5.467 2.029 5.995 4.949zm-6.01-31.812c-1.647 0-2.998-1.321-2.998-2.966 0-1.629 1.335-2.966 2.997-2.966s2.998 1.322 2.998 2.966c0 1.63-1.336 2.966-2.998 2.966zm17.94-.722l6.212 11.326H41.204l6.228-11.326zm0 19.732c-3.713 0-6.788-2.704-7.316-6.239h14.63c-.527 3.52-3.618 6.24-7.315 6.24z" fill="#000"/></svg>
